vendor/shopware/storefront/Resources/app/storefront/dist/assets/icon/default/history.svg

<svg xmlns="http://www.w3.org/2000/svg" width="24" height="24" viewBox="0 0 24 24">
  <path fill="#758CA3" fill-rule="evenodd" d="M6.41421356,6 L8.70710678,8.29289322 C9.09763107,8.68341751 9.09763107,9.31658249 8.70710678,9.70710678 C8.31658249,10.0976311 7.68341751,10.0976311 7.29289322,9.70710678 L3.29289322,5.70710678 C2.90236893,5.31658249 2.90236893,4.68341751 3.29289322,4.29289322 L7.29289322,0.292893219 C7.68341751,-0.0976310729 8.31658249,-0.0976310729 8.70710678,0.292893219 C9.09763107,0.683417511 9.09763107,1.31658249 8.70710678,1.70710678 L6.41421356,4 L12.5,4 C17.7467051,4 22,8.25329488 22,13.5 C22,18.7467051 17.7467051,23 12.5,23 C7.25329488,23 3,18.7467051 3,13.5 C3,12.9477153 3.44771525,12.5 4,12.5 C4.55228475,12.5 5,12.9477153 5,13.5 C5,17.6421356 8.35786438,21 12.5,21 C16.6421356,21 20,17.6421356 20,13.5 C20,9.35786438 16.6421356,6 12.5,6 L6.41421356,6 Z M13,9 L13,13 L15,13 C15.5522847,13 16,13.4477153 16,14 C16,14.5522847 15.5522847,15 15,15 L12,15 C11.4477153,15 11,14.5522847 11,14 L11,9 C11,8.44771525 11.4477153,8 12,8 C12.5522847,8 13,8.44771525 13,9 Z"/>
</svg>

<svg xmlns="http://www.w3.org/2000/svg" width="24" height="24" viewBox="0 0 24 24"><path fill="#758CA3" fill-rule="evenodd" d="m6.4142 6 2.293 2.2929c.3904.3905.3904 1.0237 0 1.4142-.3906.3905-1.0238.3905-1.4143 0l-4-4c-.3905-.3905-.3905-1.0237 0-1.4142l4-4c.3905-.3905 1.0237-.3905 1.4142 0 .3905.3905.3905 1.0237 0 1.4142L6.4142 4H12.5c5.2467 0 9.5 4.2533 9.5 9.5S17.7467 23 12.5 23 3 18.7467 3 13.5c0-.5523.4477-1 1-1s1 .4477 1 1c0 4.1421 3.3579 7.5 7.5 7.5s7.5-3.3579 7.5-7.5S16.6421 6 12.5 6H6.4142zM13 9v4h2c.5523 0 1 .4477 1 1s-.4477 1-1 1h-3c-.5523 0-1-.4477-1-1V9c0-.5523.4477-1 1-1s1 .4477 1 1z"/></svg>
